X:4
T:Requiem For The Stewart Tartan
R:Death March
C:Adam Blaine
M:4/4
L:1/8
K:D
[| {g}B6 c2 |[M:3/4] {Gdc}d4 {g}ed | {ge}f4 {gf}g2 | {a}e4 {g}f>e | 
{Gdc}d4 e2 | {g}f4 {g}e<d | {gcd}c<{e}(B B4) | {gBG}B4 {g}de ||
"A new day dawns"{g}f4 {g}df | {gf}g4 {ag}a2 | {e}(f2 f>>)gf// e2 | {A}e4 {g}d>e |
{g}f4 {gf}g2 | {a}e4 d2 | {gcd}c6 | {GdG}c4 {g}de |
{g}f4 {ag}a2 | {e}f4 {g}e<d | {gef}e4 A2 |[M: 4/4] {gB}c6 d2 |
[M: 3/4]"   All together now"{g}B4 d2 | {ge}f4 {g}e<d | {gcd}c<{e}(B HB4) |]

